usr/share/icons/biglinux-icons-material/16/actions/media-repeat-playlist-amarok.svg

<svg xmlns="http://www.w3.org/2000/svg" viewBox="0 0 16 16"><path d="M3 2a1 1 0 0 0-1 1 1 1 0 0 0 1 1 1 1 0 0 0 1-1 1 1 0 0 0-1-1zm2 0v1h8V2H5zm0 2v1h6V4H5zm7 3v1H7c-1.108 0-2 .892-2 2h1c0-.554.446-1 1-1h5v1l2-1.5L12 7zM3 8a1 1 0 0 0-1 1 1 1 0 0 0 1 1 1 1 0 0 0 1-1 1 1 0 0 0-1-1zm4 3-2 1.5L7 14v-1h5c1.108 0 2-.892 2-2h-1c0 .554-.446 1-1 1H7v-1z" style="fill:currentColor;fill-opacity:1;stroke:none;color:#dedede"/></svg>

<svg xmlns="http://www.w3.org/2000/svg" viewBox="0 0 16 16">
  <defs id="defs3051">
    <style type="text/css" id="current-color-scheme">
      .ColorScheme-Text {
        color:#dedede;
      }
      </style>
  </defs>
 <path style="fill:currentColor;fill-opacity:1;stroke:none" 
     d="M 3 2 A 1 1 0 0 0 2 3 A 1 1 0 0 0 3 4 A 1 1 0 0 0 4 3 A 1 1 0 0 0 3 2 z M 5 2 L 5 3 L 7 3 L 13 3 L 13 2 L 7 2 L 5 2 z M 5 4 L 5 5 L 7 5 L 11 5 L 11 4 L 7 4 L 5 4 z M 12 7 L 12 8 L 7 8 C 5.89201 8 5 8.89201 5 10 L 6 10 C 6 9.446 6.446 9 7 9 L 11 9 L 12 9 L 12 10 L 14 8.5 L 12 7 z M 3 8 A 1 1 0 0 0 2 9 A 1 1 0 0 0 3 10 A 1 1 0 0 0 4 9 A 1 1 0 0 0 3 8 z M 7 11 L 5 12.5 L 7 14 L 7 13 L 12 13 C 13.10799 13 14 12.10799 14 11 L 13 11 C 13 11.554 12.554 12 12 12 L 8 12 L 7 12 L 7 11 z "
     class="ColorScheme-Text"
     />
</svg>
